libs/assets/src/lib/icons/Coins.svg

<svg xmlns="http://www.w3.org/2000/svg" fill="none" viewBox="0 0 24 24">
  <path fill="currentColor" d="M17.25 8.39719V7.875c0-2.35125-3.5466-4.125-8.25-4.125C4.29656 3.75.75 5.52375.75 7.875v3.75c0 1.9584 2.46094 3.5147 6 3.9806v.5194c0 2.3512 3.5466 4.125 8.25 4.125s8.25-1.7738 8.25-4.125v-3.75c0-1.9406-2.3831-3.49875-6-3.97781Zm4.5 3.97781C21.75 13.6144 18.8634 15 15 15c-.3497 0-.6966-.0122-1.0387-.0347 2.0221-.7369 3.2887-1.9341 3.2887-3.3403V9.91313c2.8003.41717 4.5 1.54967 4.5 2.46187Zm-15 1.7109v-2.2303c.74604.0972 1.49765.1455 2.25.1444.75235.0011 1.504-.0472 2.25-.1444v2.2303c-.7449.1101-1.49698.1649-2.25.1641-.75302.0008-1.50507-.054-2.25-.1641Zm9-3.78v1.3191c0 .7866-1.1634 1.6312-3 2.1441v-2.191c1.2103-.2934 2.235-.7303 3-1.2722ZM9 5.25c3.8634 0 6.75 1.38562 6.75 2.625S12.8634 10.5 9 10.5c-3.86344 0-6.75-1.38562-6.75-2.625S5.13656 5.25 9 5.25Zm-6.75 6.375v-1.3191c.765.5419 1.78969.9788 3 1.2722v2.191c-1.83656-.5129-3-1.3575-3-2.1441Zm6 4.5v-.3909c.24656.0093.49594.0159.75.0159.36375 0 .71906-.0122 1.0678-.0328.3874.1387.7821.2564 1.1822.3525v2.1994c-1.83656-.5129-3-1.3575-3-2.1441Zm4.5 2.4609V16.35c.7458.1003 1.4975.1504 2.25.15.7523.0011 1.504-.0472 2.25-.1444v2.2303c-1.492.2188-3.008.2188-4.5 0Zm6-.3168v-2.191c1.2103-.2934 2.235-.7303 3-1.2722v1.3191c0 .7866-1.1634 1.6312-3 2.1441Z"/>
</svg>

<svg width="24" height="24" viewBox="0 0 24 24" fill="none" xmlns="http://www.w3.org/2000/svg">
<path d="M17.25 8.39719V7.875C17.25 5.52375 13.7034 3.75 9 3.75C4.29656 3.75 0.75 5.52375 0.75 7.875V11.625C0.75 13.5834 3.21094 15.1397 6.75 15.6056V16.125C6.75 18.4762 10.2966 20.25 15 20.25C19.7034 20.25 23.25 18.4762 23.25 16.125V12.375C23.25 10.4344 20.8669 8.87625 17.25 8.39719ZM21.75 12.375C21.75 13.6144 18.8634 15 15 15C14.6503 15 14.3034 14.9878 13.9613 14.9653C15.9834 14.2284 17.25 13.0312 17.25 11.625V9.91313C20.0503 10.3303 21.75 11.4628 21.75 12.375ZM6.75 14.0859V11.8556C7.49604 11.9528 8.24765 12.0011 9 12C9.75235 12.0011 10.504 11.9528 11.25 11.8556V14.0859C10.5051 14.196 9.75302 14.2508 9 14.25C8.24698 14.2508 7.49493 14.196 6.75 14.0859ZM15.75 10.3059V11.625C15.75 12.4116 14.5866 13.2562 12.75 13.7691V11.5781C13.9603 11.2847 14.985 10.8478 15.75 10.3059ZM9 5.25C12.8634 5.25 15.75 6.63562 15.75 7.875C15.75 9.11438 12.8634 10.5 9 10.5C5.13656 10.5 2.25 9.11438 2.25 7.875C2.25 6.63562 5.13656 5.25 9 5.25ZM2.25 11.625V10.3059C3.015 10.8478 4.03969 11.2847 5.25 11.5781V13.7691C3.41344 13.2562 2.25 12.4116 2.25 11.625ZM8.25 16.125V15.7341C8.49656 15.7434 8.74594 15.75 9 15.75C9.36375 15.75 9.71906 15.7378 10.0678 15.7172C10.4552 15.8559 10.8499 15.9736 11.25 16.0697V18.2691C9.41344 17.7562 8.25 16.9116 8.25 16.125ZM12.75 18.5859V16.35C13.4958 16.4503 14.2475 16.5004 15 16.5C15.7523 16.5011 16.504 16.4528 17.25 16.3556V18.5859C15.758 18.8047 14.242 18.8047 12.75 18.5859ZM18.75 18.2691V16.0781C19.9603 15.7847 20.985 15.3478 21.75 14.8059V16.125C21.75 16.9116 20.5866 17.7562 18.75 18.2691Z" fill="#4F1650"/>
</svg>
